Sources/FrostedUI/Resources/Icons.xcassets/mail32.imageset/mail-32.svg

<svg width="32" height="32" viewBox="0 0 32 32" fill="none" xmlns="http://www.w3.org/2000/svg" data-fui-icon="true">
  <path
    d="M26.25 4C28.8734 4 31 6.12665 31 8.75V23.25C31 25.8734 28.8734 28 26.25 28H5.75C3.12665 28 1 25.8734 1 23.25V8.75C1 6.12665 3.12665 4 5.75 4H26.25ZM19.5391 17.9141C18.4945 18.6218 17.2617 19 16 19C14.7383 19 13.5055 18.6218 12.4609 17.9141L2.5 11.1641V23.25C2.5 25.0449 3.95507 26.5 5.75 26.5H26.25C28.0449 26.5 29.5 25.0449 29.5 23.25V11.1641L19.5391 17.9141ZM5.75 5.5C3.95507 5.5 2.5 6.95507 2.5 8.75V9.35156L13.3018 16.6719C14.0981 17.2115 15.0381 17.5 16 17.5C16.9619 17.5 17.9019 17.2115 18.6982 16.6719L29.5 9.35156V8.75C29.5 6.95507 28.0449 5.5 26.25 5.5H5.75Z"
    fill="currentColor"
  />
</svg>

<svg xmlns="http://www.w3.org/2000/svg" width="32" height="32" fill="none" data-fui-icon="true" viewBox="0 0 32 32"><path fill="currentColor" d="M26.25 4A4.75 4.75 0 0 1 31 8.75v14.5A4.75 4.75 0 0 1 26.25 28H5.75A4.75 4.75 0 0 1 1 23.25V8.75A4.75 4.75 0 0 1 5.75 4zm-6.71 13.914a6.31 6.31 0 0 1-7.08 0l-9.96-6.75V23.25a3.25 3.25 0 0 0 3.25 3.25h20.5a3.25 3.25 0 0 0 3.25-3.25V11.164zM5.75 5.5A3.25 3.25 0 0 0 2.5 8.75v.602l10.802 7.32a4.81 4.81 0 0 0 5.396 0L29.5 9.352V8.75a3.25 3.25 0 0 0-3.25-3.25z"/></svg>
